!!!!SEGMENT: pl-wnifc--13846--088_anonim--piesni-polskie-i-ruskie-ludu-galicyjskiego-88-a-ja-lublu-petrusia.krn
!!!kernsource:
!!!cenid: 18xx:3310
!!!COM: Anonim
!!!COM-rismid: pe30004985
!!!CDT:
!!!CNT:
!!!GTL: Pieśni polskie i ruskie ludu galicyjskiego
!!!OTL: 88. A ja lublu Petrusia
!!!PDT: 1833
!!!AGN:
!!!SMS-siglum: PL-Wnifc
!!!SMS-shelfmark: 13846
!!!SMS-shelfwork: 088 G
!!!NIFC-rismid: 1001039004
!!!URL-scan: http://repozytorium.nifc.pl/skany/pl-wnifc-nut--13846
!!!ONB-nifc:
!!!key: a
**kern	**kern	**kern	**text
*part2	*part2	*part1	*part1
*group2	*group2	*group1	*group1
*staff3	*staff2	*staff1	*staff1
*I"[Fortepian.]	*I"[Fortepian.]	*I"[Głos.]	*
*Ipiano	*Ipiano	*Ivox	*
*ICklav	*ICklav	*ICvox	*
*IGacmp	*IGacmp	*IGsolo	*
*clefF4	*clefG2	*clefG2	*
*k[]	*k[]	*k[]	*
*a:	*a:	*a:	*
*M2/4	*M2/4	*M2/4	*
=1-	=1-	=1-	=1-
!	!	!LO:TX:a:B:t=E.57.	!
!LO:TX:t=P:problem=mixed beam	!	!LO:TX:a:B:t=Allegretto.	!
8AA/L	(16a/LL	(16a/LL	A
.	16g#X/)	16g#X/JJ)	.
8c\ 8A\	(16a/	(16a/LL	ja
.	16b\JJ)	16b\JJ)	.
8AA/	(16cc\LL	(16cc\LL	lu-
.	16b\	16b\	.
8A\J	16cc\)	16cc\JJ)	.
.	16dd\|JJ	16dd\|	-blu
=2	=2	=2	=2
!LO:TX:t=P:problem=mixed beam	!	!	!
8EE/L	8ee\|L	8ee\	Pe-
8B\ 8G#X\	8ee\|J	8ee\	-tru-
8EE/	4e^>/	4e/	-sia,
8E\J	.	.	.
!!linebreak:original
=3	=3	=3	=3
!LO:TX:t=P:problem=mixed beam	!	!	!
8AA/L	(16a/LL	(16a/LL	taj
.	16g#X/JJ)	16g#X/JJ)	.
8c\ 8A\	(16a/LL	(16a/LL	ska-
.	16b\JJ)	16b\JJ)	.
8AA/	(16cc\LL	(16cc\LL	-za-
.	16b\	16b\	.
8A\J	16cc\)	16cc\JJ)	.
.	16dd\|JJ	16dd\	-ty
=4	=4	=4	=4
!LO:TX:t=P:problem=mixed beam	!	!	!
8EE/L	8ee\	8ee\	bo-
!	!LO:TX:a:t=łamana belka	!	!
8B\ 8G#X\	(16ee\LL	(16ee\LL	-ju
.	16dd#X\JJ)	16dd#X\JJ)	.
8EE/	4ee\	4ee\	sia;
8E\J	.	.	.
!!linebreak:original
=5!|:	=5!|:	=5!|:	=5!|:
!LO:TX:t=P:problem=mixed beam	!	!	!
8AA/L	8.aa\L 8.cc\ 8.a\	(8.aa\L	Oj
8c\ 8A\	.	.	.
.	16ee\K 16e\	16ee\Jk)	.
8c\ 8A\	8ee\ 8e\	8ee\	bi-
8c\J 8A\	8ee\J 8e\	8ee\	-da
=6	=6	=6	=6
!LO:TX:t=P:problem=mixed beam	!	!	!
8AA/L	8dd#X\L 8fn\	8dd#X\	ne
8c\ 8A\	8dd#\J 8f\	8dd#\	Pe-
8B\ 8G#X\	8.ee^<\L 8.e\	(8.ee\L	-truś,
8B\J 8E\	.	.	.
.	16ddn\Jk	16ddn\Jk)	.
=7	=7	=7	=7
8A\|L	(16cc\LL	(16cc\LL	bi-
.	16b\	16b\	.
8e\J 8c\	16a/	16a/JJ)	.
.	16cc\|JJ)	16cc\|	-łe
8E\|L	(16b\LL	(16b\LL	łycz-
.	16a\	16a/	.
8d\J 8B\	16g#X\	16g#X/JJ)	.
.	16b\|JJ)	16b/	-ko
!!linebreak:original
=8	=8	=8	=8
8c\L 8A\	8a/	8a/	czor-
8c\ 8A\	(16a/LL	(16a/LL	-nyj
.	16g#X/JJ)	16g#X/JJ)	wuś.
8c\J 8A\	8a/	8a/	.
8r	8r	8r	.
==	==	==	==
*-	*-	*-	*-
!!!system-decoration: g1{g2}
!!!RDF**kern: > = above
!!!RDF**kern: < = below
!!!RDF**kern: | = vertical stroke
!!!AIN: 1 piano 1 vox
!!!ENC: Katarzyna Serwa
!!!END: 2021-11-11
